X: 35249
T: Roscommon, The
R: reel
M: 4/4
K: Edorian
EFGA BAGB|AF F2 dFAF|EFGA BAGB|AFdF FE E2|
EFGA BAGB|AF F2 dFAF|EFGA BAGB|AFdF FE E2||
eB B2 efge|fa a2 bfaf|eB B2 efge|fagf efgf|
eB B2 efge|fa a2 b2 ag|fagf egfe|dBAF EFGA||
B3A B2 dB|AD D2 AD D2|B2 BA B2 dB|AFdF FE E2|
EBBA B2 dB|AD D2 AD D2|dBBA B2 dB|AFdF FEED||

